X: 1
T: KEY WEST -- HORNPIPE
B: Ryan's Mammoth Collection of Fiddle Tunes
R: hornpipe
M: 2/4
L: 1/16
Z: Contributed 20010917193911 by John Chambers jmchambers:rcn.net
K: G
vBc \
| dBGB d(gfg) | dBGB d(gfg) | dB"4"ed cBAG | F"4"AGE D2(Bc) |
| dBGB d(gfg) | dBGB d(gfg) | "4"edcB AGF"4"A | G2B2G2 :|
|: vcB \
| AFDF AcBA | BGDG B,"4"DG,B, | DGBd gdBG | Adc"4"e .d2(ef) |
| gbgd BdBG | CB,CD EDCB, | C"4"edc BAGF | G2B2G2 :|
